resources/noradrenaline.svg

<?xml version="1.0"?>
<!DOCTYPE svg PUBLIC '-//W3C//DTD SVG 1.0//EN'
          'http://www.w3.org/TR/2001/REC-SVG-20010904/DTD/svg10.dtd'>
<svg fill-opacity="1" xmlns:xlink="http://www.w3.org/1999/xlink" color-rendering="auto" color-interpolation="auto" text-rendering="auto" stroke="black" stroke-linecap="square" width="476" stroke-miterlimit="10" shape-rendering="auto" stroke-opacity="1" fill="black" stroke-dasharray="none" font-weight="normal" stroke-width="1" height="541" xmlns="http://www.w3.org/2000/svg" font-family="'Dialog'" font-style="normal" stroke-linejoin="miter" font-size="12px" stroke-dashoffset="0" image-rendering="auto"
><!--Generated by Marvin with Batik SVG Generator
MolSource:
<?xml version="1.0" encoding="windows-1252"?><cml xmlns="http://www.chemaxon.com" xmlns:xsi="http://www.w3.org/2001/XMLSchema-instance" xsi:schemaLocation="http://www.chemaxon.com/marvin/schema/mrvSchema_16_02_15.xsd" version="ChemAxon file format v16.02.15, generated by v17.21.0">
<MDocument><MTextBox id="o1" color="#000000" toption="NOROT" fontScale="10.0" halign="LEFT" valign="TOP" autoSize="true"><Field name="text"><![CDATA[{D font=SansSerif,size=10}]]></Field><MPoint x="-1.875" y="-1.6041666269302368"></MPoint><MPoint x="-1.8750000000000142" y="-1.6041666269302368"></MPoint><MPoint x="-1.8750000000000142" y="-2.37416662693024"></MPoint><MPoint x="-1.8750000000000426" y="-2.37416662693024"></MPoint></MTextBox><MTextBox id="o2" color="#000000" toption="NOROT" fontScale="10.0" halign="LEFT" valign="TOP" autoSize="true"><Field name="text"><![CDATA[{D font=SansSerif,size=10}]]></Field><MPoint x="-11.166666984558105" y="8.416666984558105"></MPoint><MPoint x="-11.16666698455812" y="8.416666984558105"></MPoint><MPoint x="-11.16666698455812" y="7.6466669845581094"></MPoint><MPoint x="-11.166666984558134" y="7.6466669845581094"></MPoint></MTextBox><MChemicalStruct><reaction><arrow type="DEFAULT" x1="-10.93669873928866" y1="10.520833015441891" x2="-8.45025662513086" y2="9.413797661859636"></arrow><reactantList></reactantList><agentList><molecule molID="m1"><atomArray atomID="a1 a2 a3 a4 a5 a6 a7 a8 a9 a10 a11 a12" elementType="O O C C C C C C C C N O" x2="-13.208554157929964 -13.24702685655273 -10.66393216125674 -11.955474181916776 -11.874875036101928 -10.502733869627047 -9.211191848967008 -9.291790994781856 -7.9634131029261805 -6.587045604558421 -5.253366482730385 -7.9634131029261805" y2="4.641239480620729 7.787906912751098 7.78792331820723 6.949162798827956 5.411239480620729 4.712076681792769 5.550837201172043 7.088760519379271 7.867870380970737 7.177064685107656 7.947064685107655 9.407870380970737"></atomArray><bondArray><bond id="b1" atomRefs2="a5 a1" order="1"></bond><bond id="b2" atomRefs2="a4 a2" order="1"></bond><bond id="b3" atomRefs2="a3 a4" order="1"></bond><bond id="b4" atomRefs2="a3 a8" order="2"></bond><bond id="b5" atomRefs2="a4 a5" order="2"></bond><bond id="b6" atomRefs2="a5 a6" order="1"></bond><bond id="b7" atomRefs2="a6 a7" order="2"></bond><bond id="b8" atomRefs2="a7 a8" order="1"></bond><bond id="b9" atomRefs2="a8 a9" order="1"></bond><bond id="b10" atomRefs2="a9 a10" order="1"></bond><bond id="b11" atomRefs2="a9 a12" order="1"></bond><bond id="b12" atomRefs2="a10 a11" order="1"></bond></bondArray></molecule></agentList><productList></productList></reaction></MChemicalStruct><MTextBox id="o4" color="#000000" toption="NOROT" fontScale="10.0" halign="LEFT" valign="TOP" autoSize="false"><Field name="text"><![CDATA[{D font=SansSerif,size=10}Hydroxyl Group added]]></Field><MPoint x="-13.895833969116211" y="11.458333015441895"></MPoint><MPoint x="-8.12083396911622" y="11.458333015441895"></MPoint><MPoint x="-8.12083396911622" y="10.688333015441899"></MPoint><MPoint x="-13.89583396911624" y="10.688333015441899"></MPoint></MTextBox></MDocument>
</cml>
--><defs id="genericDefs"
  /><g
  ><defs id="1688302476550-defs1"
    ><clipPath clipPathUnits="userSpaceOnUse" id="1688302476454-clipPath1"
      ><path d="M0 0 L476 0 L476 541 L0 541 L0 0 Z"
      /></clipPath
      ><clipPath clipPathUnits="userSpaceOnUse" id="1688302476303-clipPath1"
      ><path d="M94.1721 218.478 C82.7469 218.478 73.485 227.74 73.485 239.1652 C73.485 250.5904 82.7469 259.8524 94.1721 259.8524 C105.5974 259.8524 114.8593 250.5904 114.8593 239.1652 C114.8593 227.74 105.5974 218.478 94.1721 218.478 Z"
      /></clipPath
      ><clipPath clipPathUnits="userSpaceOnUse" id="1688302476873-clipPath1"
      ><path d="M91.2664 163.152 C79.907 163.152 70.6983 172.3606 70.6983 183.72 C70.6983 195.0794 79.907 204.2881 91.2664 204.2881 C102.6258 204.2881 111.8344 195.0794 111.8344 183.72 C111.8344 172.3606 102.6258 163.152 91.2664 163.152 Z"
      /></clipPath
      ><clipPath clipPathUnits="userSpaceOnUse" id="1688302476838-clipPath1"
      ><path d="M235.1881 129.9385 C223.7777 129.9385 214.5278 139.1884 214.5278 150.5988 C214.5278 162.0092 223.7777 171.2591 235.1881 171.2591 C246.5984 171.2591 255.8484 162.0092 255.8484 150.5988 C255.8484 139.1884 246.5984 129.9385 235.1881 129.9385 Z"
      /></clipPath
      ><clipPath clipPathUnits="userSpaceOnUse" id="168830247627-clipPath1"
      ><path d="M284.8089 153.7139 C272.7747 153.7139 263.019 163.4695 263.019 175.5037 C263.019 187.5379 272.7747 197.2935 284.8089 197.2935 C296.843 197.2935 306.5987 187.5379 306.5987 175.5037 C306.5987 163.4695 296.843 153.7139 284.8089 153.7139 Z"
      /></clipPath
      ><clipPath clipPathUnits="userSpaceOnUse" id="1688302476705-clipPath1"
      ><path d="M-27.0279 -254.4252 L448.9721 -254.4252 L448.9721 286.5748 L-27.0279 286.5748 L-27.0279 -254.4252 Z"
      /></clipPath
      ><clipPath clipPathUnits="userSpaceOnUse" id="1688302476832-clipPath1"
      ><path d="M-25.6409 -140.9816 L450.3592 -140.9816 L450.3592 400.0184 L-25.6409 400.0184 L-25.6409 -140.9816 Z"
      /></clipPath
      ><clipPath clipPathUnits="userSpaceOnUse" id="1688302476522-clipPath1"
      ><path d="M-326.2578 -135.2437 L149.7422 -135.2437 L149.7422 405.7563 L-326.2578 405.7563 L-326.2578 -135.2437 Z"
      /></clipPath
      ><clipPath clipPathUnits="userSpaceOnUse" id="1688302476958-clipPath1"
      ><path d="M-352.0547 -145.5804 L123.9453 -145.5804 L123.9453 395.4196 L-352.0547 395.4196 L-352.0547 -145.5804 Z"
      /></clipPath
      ><clipPath clipPathUnits="userSpaceOnUse" id="168830247689-clipPath1"
      ><path d="M-228.3443 -82.5787 L247.6557 -82.5787 L247.6557 458.4213 L-228.3443 458.4213 L-228.3443 -82.5787 Z"
      /></clipPath
      ><clipPath clipPathUnits="userSpaceOnUse" id="1688302476917-clipPath1"
      ><path d="M20.6506 21.0771 L127.5669 21.0771 L127.5669 35.7024 L20.6506 35.7024 L20.6506 21.0771 Z"
      /></clipPath
    ></defs
    ><g fill="red" text-rendering="geometricPrecision" stroke="red"
    ><path d="M93.5713 238.1245 L57.74 258.8117 C57.1651 259.1436 56.9682 259.8784 57.3002 260.4532 C57.6321 261.0281 58.3669 261.225 58.9417 260.8931 L94.773 240.2059 C95.3479 239.874 95.5448 239.1392 95.2129 238.5643 C94.881 237.9894 94.1462 237.7926 93.5713 238.1245 Z" stroke="none" clip-path="url(#1688302476454-clipPath1)"
      /><path fill="black" d="M93.5713 238.1245 L57.74 258.8117 C57.1651 259.1436 56.9682 259.8784 57.3002 260.4532 C57.6321 261.0281 58.3669 261.225 58.9417 260.8931 L94.773 240.2059 C95.3479 239.874 95.5448 239.1392 95.2129 238.5643 C94.881 237.9894 94.1462 237.7926 93.5713 238.1245 Z" clip-path="url(#1688302476303-clipPath1)" stroke="none"
    /></g
    ><g fill="red" text-rendering="geometricPrecision" stroke="red"
    ><path d="M91.9209 182.7122 L57.4213 160.3078 C56.8645 159.9463 56.1204 160.1045 55.7589 160.6612 C55.3974 161.2179 55.5555 161.962 56.1122 162.3235 L90.6119 184.7279 C91.1686 185.0894 91.9127 184.9312 92.2742 184.3745 C92.6358 183.8178 92.4776 183.0737 91.9209 182.7122 Z" stroke="none" clip-path="url(#1688302476454-clipPath1)"
      /><path fill="black" d="M91.9209 182.7122 L57.4213 160.3078 C56.8645 159.9463 56.1204 160.1045 55.7589 160.6612 C55.3974 161.2179 55.5555 161.962 56.1122 162.3235 L90.6119 184.7279 C91.1686 185.0894 91.9127 184.9312 92.2742 184.3745 C92.6358 183.8178 92.4776 183.0737 91.9209 182.7122 Z" clip-path="url(#1688302476873-clipPath1)" stroke="none"
    /></g
    ><g text-rendering="geometricPrecision"
    ><path d="M137.1745 152.4732 L90.6119 182.7122 C90.0551 183.0737 89.897 183.8178 90.2585 184.3745 C90.6201 184.9313 91.3642 185.0894 91.9209 184.7279 L138.4836 154.4889 C139.0403 154.1273 139.1984 153.3832 138.8369 152.8265 C138.4753 152.2698 137.7312 152.1116 137.1745 152.4732 Z" stroke="none" clip-path="url(#1688302476454-clipPath1)"
    /></g
    ><g text-rendering="geometricPrecision"
    ><path d="M138.3746 152.4103 C137.7831 152.1089 137.0597 152.344 136.7583 152.9355 C136.4569 153.5269 136.692 154.2504 137.2834 154.5518 L186.7518 179.758 C187.3433 180.0594 188.0668 179.8243 188.3682 179.2328 C188.6695 178.6414 188.4345 177.9179 187.843 177.6165 ZM140.0505 164.5038 C139.4591 164.2024 138.7356 164.4375 138.4342 165.0289 C138.1328 165.6204 138.3679 166.3439 138.9594 166.6453 L175.983 185.5103 C176.5745 185.8117 177.2979 185.5766 177.5993 184.9852 C177.9007 184.3937 177.6656 183.6702 177.0742 183.3689 Z" stroke="none" clip-path="url(#1688302476454-clipPath1)"
    /></g
    ><g text-rendering="geometricPrecision"
    ><path d="M102.8326 190.1069 C102.7979 189.444 102.2326 188.935 101.5697 188.9697 C100.9068 189.0045 100.3978 189.5698 100.4325 190.2327 L102.6073 231.7301 C102.642 232.393 103.2073 232.902 103.8702 232.8672 C104.5332 232.8325 105.0422 232.2672 105.0074 231.6043 ZM92.4665 183.6571 C92.4317 182.9942 91.8664 182.4852 91.2035 182.5199 C90.5406 182.5547 90.0316 183.12 90.0663 183.7829 L92.9721 239.2281 C93.0068 239.891 93.5721 240.4 94.235 240.3653 C94.8979 240.3305 95.407 239.7652 95.3722 239.1023 Z" stroke="none" clip-path="url(#1688302476454-clipPath1)"
    /></g
    ><g text-rendering="geometricPrecision"
    ><path d="M93.6266 240.2359 L143.095 265.4421 C143.6864 265.7435 144.4099 265.5085 144.7113 264.917 C145.0127 264.3255 144.7776 263.6021 144.1861 263.3007 L94.7177 238.0945 C94.1263 237.7931 93.4028 238.0281 93.1014 238.6196 C92.8 239.2111 93.0351 239.9346 93.6266 240.2359 Z" stroke="none" clip-path="url(#1688302476454-clipPath1)"
    /></g
    ><g text-rendering="geometricPrecision"
    ><path d="M143.3887 251.1611 C142.8319 251.5227 142.6738 252.2668 143.0353 252.8235 C143.3969 253.3802 144.141 253.5384 144.6977 253.1768 L179.5466 230.5451 C180.1033 230.1835 180.2614 229.4394 179.8999 228.8827 C179.5383 228.326 178.7943 228.1678 178.2375 228.5294 ZM142.986 263.3636 C142.4293 263.7251 142.2711 264.4692 142.6327 265.0259 C142.9943 265.5826 143.7383 265.7408 144.2951 265.3792 L190.8577 235.1403 C191.4144 234.7787 191.5726 234.0346 191.211 233.4779 C190.8495 232.9212 190.1054 232.763 189.5487 233.1246 Z" stroke="none" clip-path="url(#1688302476454-clipPath1)"
    /></g
    ><g text-rendering="geometricPrecision"
    ><path d="M191.4033 234.0695 L188.4975 178.6243 C188.4628 177.9614 187.8975 177.4524 187.2345 177.4872 C186.5716 177.5219 186.0626 178.0872 186.0974 178.7501 L189.0031 234.1953 C189.0379 234.8582 189.6032 235.3672 190.2661 235.3325 C190.929 235.2978 191.438 234.7324 191.4033 234.0695 Z" stroke="none" clip-path="url(#1688302476454-clipPath1)"
    /></g
    ><g text-rendering="geometricPrecision"
    ><path d="M187.9054 179.7238 L235.7961 151.6354 C236.3687 151.2995 236.5605 150.5634 236.2247 149.9908 C235.8888 149.4182 235.1527 149.2264 234.5801 149.5622 L186.6895 177.6507 C186.1169 177.9865 185.925 178.7226 186.2608 179.2952 C186.5967 179.8678 187.3328 180.0597 187.9054 179.7238 Z" stroke="none" clip-path="url(#1688302476454-clipPath1)"
    /></g
    ><g text-rendering="geometricPrecision"
    ><path d="M234.649 151.6728 L284.2698 176.5777 C284.8631 176.8755 285.5851 176.636 285.8829 176.0428 C286.1807 175.4495 285.9412 174.7274 285.3479 174.4297 L235.7271 149.5247 C235.1339 149.227 234.4118 149.4664 234.1141 150.0597 C233.8163 150.653 234.0557 151.375 234.649 151.6728 Z" stroke="none" clip-path="url(#1688302476454-clipPath1)"
    /></g
    ><g fill="red" text-rendering="geometricPrecision" stroke="red"
    ><path d="M236.3898 150.5988 L236.3898 109.2782 C236.3898 108.6144 235.8519 108.0765 235.1881 108.0765 C234.5243 108.0765 233.9864 108.6144 233.9864 109.2782 L233.9864 150.5988 C233.9864 151.2626 234.5243 151.8005 235.1881 151.8005 C235.8519 151.8005 236.3898 151.2626 236.3898 150.5988 Z" stroke="none" clip-path="url(#1688302476454-clipPath1)"
      /><path fill="black" d="M236.3898 150.5988 L236.3898 109.2782 C236.3898 108.6144 235.8519 108.0765 235.1881 108.0765 C234.5243 108.0765 233.9864 108.6144 233.9864 109.2782 L233.9864 150.5988 C233.9864 151.2626 234.5243 151.8005 235.1881 151.8005 C235.8519 151.8005 236.3898 151.2626 236.3898 150.5988 Z" clip-path="url(#1688302476838-clipPath1)" stroke="none"
    /></g
    ><g fill="rgb(51,51,153)" text-rendering="geometricPrecision" stroke="rgb(51,51,153)"
    ><path d="M285.4097 176.5444 L323.1508 154.7546 C323.7257 154.4227 323.9225 153.6879 323.5906 153.113 C323.2587 152.5381 322.524 152.3412 321.9491 152.6732 L284.208 174.463 C283.6331 174.7949 283.4362 175.5297 283.7681 176.1046 C284.1 176.6794 284.8348 176.8763 285.4097 176.5444 Z" stroke="none" clip-path="url(#1688302476454-clipPath1)"
      /><path fill="black" d="M285.4097 176.5444 L323.1508 154.7546 C323.7257 154.4227 323.9225 153.6879 323.5906 153.113 C323.2587 152.5381 322.524 152.3412 321.9491 152.6732 L284.208 174.463 C283.6331 174.7949 283.4362 175.5297 283.7681 176.1046 C284.1 176.6794 284.8348 176.8763 285.4097 176.5444 Z" clip-path="url(#168830247627-clipPath1)" stroke="none"
    /></g
    ><g fill="white" text-rendering="geometricPrecision" stroke="white"
    ><path d="M32.6617 257.7827 C30.1025 257.7827 28.0279 259.8573 28.0279 262.4164 L28.0279 271.684 C28.0279 274.2432 30.1025 276.3178 32.6617 276.3178 L49.441 276.3178 C52.0001 276.3178 54.0747 274.2432 54.0747 271.684 L54.0747 262.4164 C54.0747 259.8573 52.0001 257.7827 49.441 257.7827 Z" stroke="none" clip-path="url(#1688302476454-clipPath1)"
    /></g
    ><g fill="red" text-rendering="geometricPrecision" font-size="19px" font-family="sans-serif" transform="translate(27.0279,254.4252)" stroke="red"
    ><text x="0" xml:space="preserve" y="20" clip-path="url(#1688302476705-clipPath1)" stroke="none"
      >HO</text
    ></g
    ><g fill="white" text-rendering="geometricPrecision" font-size="19px" font-family="sans-serif" stroke="white"
    ><path d="M31.2746 144.3391 C28.7155 144.3391 26.6409 146.4137 26.6409 148.9728 L26.6409 158.2404 C26.6409 160.7996 28.7155 162.8742 31.2746 162.8742 L48.0539 162.8742 C50.6131 162.8742 52.6877 160.7996 52.6877 158.2404 L52.6877 148.9728 C52.6877 146.4137 50.6131 144.3391 48.0539 144.3391 Z" stroke="none" clip-path="url(#1688302476454-clipPath1)"
      /><text x="0" y="20" transform="translate(25.6408,140.9816)" clip-path="url(#1688302476832-clipPath1)" fill="red" stroke="none" xml:space="preserve"
      >HO</text
    ></g
    ><g fill="white" text-rendering="geometricPrecision" font-size="19px" font-family="sans-serif" stroke="white"
    ><path d="M331.7305 138.7984 C329.2603 138.7984 327.2578 140.8008 327.2578 143.271 L327.2578 152.2163 C327.2578 154.6865 329.2603 156.689 331.7305 156.689 L347.082 156.689 C349.5522 156.689 351.5547 154.6865 351.5547 152.2163 L351.5547 159.5726 C351.5547 162.0536 353.5659 164.0648 356.0469 164.0648 L356.5167 164.0648 C358.9977 164.0648 361.0089 162.0536 361.0089 159.5726 L361.0089 150.5882 C361.0089 148.1073 358.9977 146.0961 356.5167 146.0961 L356.0469 146.0961 C353.5659 146.0961 351.5547 148.1073 351.5547 150.5882 L351.5547 143.271 C351.5547 140.8008 349.5522 138.7984 347.082 138.7984 Z" stroke="none" clip-path="url(#1688302476454-clipPath1)"
      /><text x="0" y="20" transform="translate(326.2578,135.2437)" clip-path="url(#1688302476522-clipPath1)" fill="rgb(51,51,153)" stroke="none" xml:space="preserve"
      >NH</text
    ></g
    ><g fill="rgb(51,51,153)" text-rendering="geometricPrecision" font-size="14px" font-family="sans-serif" transform="translate(352.0547,145.5804)" stroke="rgb(51,51,153)"
    ><text x="0" xml:space="preserve" y="15" clip-path="url(#1688302476958-clipPath1)" stroke="none"
      >2</text
    ></g
    ><g fill="white" text-rendering="geometricPrecision" font-size="14px" font-family="sans-serif" stroke="white"
    ><path d="M232.9781 85.9362 C230.419 85.9362 228.3443 88.0108 228.3443 90.57 L228.3443 99.8375 C228.3443 102.3967 230.419 104.4713 232.9781 104.4713 L251.5699 104.4713 C254.1291 104.4713 256.2037 102.3967 256.2037 99.8375 L256.2037 90.57 C256.2037 88.0108 254.1291 85.9362 251.5699 85.9362 Z" stroke="none" clip-path="url(#1688302476454-clipPath1)"
      /><text x="0" font-size="19px" y="20" transform="translate(228.3443,82.5787)" clip-path="url(#168830247689-clipPath1)" fill="red" stroke="none" xml:space="preserve"
      >OH</text
    ></g
    ><g text-rendering="geometricPrecision" font-size="10px" font-family="sans-serif" transform="matrix(1.9829,0,-0,1.9829,-20.9472,-20.7929)"
    ><text x="21.3126" xml:space="preserve" y="32.1555" clip-path="url(#1688302476917-clipPath1)" stroke="none"
      >Hydroxyl Group added</text
    ></g
    ><g text-rendering="geometricPrecision" font-size="20px" font-weight="bold" font-family="sans-serif"
    ><path d="M201.6271 86.504 L128.4535 53.925 L127.537 55.9835 L200.7106 88.5624 L198.5111 93.5027 L217.6364 94.8651 L203.8266 81.5637 Z" stroke="none" clip-path="url(#1688302476454-clipPath1)"
    /></g
  ></g
></svg
>

<svg color-interpolation="auto" stroke="#000" stroke-linecap="square" width="476" stroke-miterlimit="10" height="541" xmlns="http://www.w3.org/2000/svg" font-family="'Dialog'" font-size="12"><defs><clipPath id="a"><path d="M0 0h476v541H0V0z"/></clipPath><clipPath id="b"><path d="M94.172 218.478c-11.425 0-20.687 9.262-20.687 20.687s9.262 20.687 20.687 20.687 20.687-9.262 20.687-20.687-9.262-20.687-20.687-20.687z"/></clipPath><clipPath id="c"><path d="M91.266 163.152c-11.359 0-20.568 9.209-20.568 20.568 0 11.36 9.209 20.568 20.568 20.568 11.36 0 20.568-9.209 20.568-20.568 0-11.36-9.208-20.568-20.568-20.568z"/></clipPath><clipPath id="d"><path d="M235.188 129.939c-11.41 0-20.66 9.25-20.66 20.66s9.25 20.66 20.66 20.66 20.66-9.25 20.66-20.66-9.25-20.66-20.66-20.66z"/></clipPath><clipPath id="e"><path d="M284.809 153.714c-12.034 0-21.79 9.756-21.79 21.79 0 12.034 9.756 21.79 21.79 21.79 12.034 0 21.79-9.756 21.79-21.79 0-12.034-9.756-21.79-21.79-21.79z"/></clipPath><clipPath id="f"><path d="M-27.028-254.425h476v541h-476v-541z"/></clipPath><clipPath id="g"><path d="M-25.64-140.982h476v541h-476v-541z"/></clipPath><clipPath id="h"><path d="M-326.258-135.244h476v541h-476v-541z"/></clipPath><clipPath id="i"><path d="M-352.055-145.58h476v541h-476v-541z"/></clipPath><clipPath id="j"><path d="M-228.344-82.579h476v541h-476v-541z"/></clipPath><clipPath id="k"><path d="M20.65 21.077h106.917v14.625H20.65V21.077z"/></clipPath></defs><g fill="red" text-rendering="geometricPrecision" stroke="none"><path d="M93.571 238.125L57.74 258.812a1.201 1.201 0 1 0 1.202 2.081l35.831-20.687a1.202 1.202 0 1 0-1.202-2.081z" clip-path="url(#a)"/><path fill="#000" d="M93.571 238.125L57.74 258.812a1.201 1.201 0 1 0 1.202 2.081l35.831-20.687a1.202 1.202 0 1 0-1.202-2.081z" clip-path="url(#b)"/></g><g fill="red" text-rendering="geometricPrecision" stroke="none"><path d="M91.92 182.712l-34.499-22.404a1.202 1.202 0 1 0-1.309 2.016l34.5 22.404a1.202 1.202 0 1 0 1.309-2.016z" clip-path="url(#a)"/><path fill="#000" d="M91.92 182.712l-34.499-22.404a1.202 1.202 0 1 0-1.309 2.016l34.5 22.404a1.202 1.202 0 1 0 1.309-2.016z" clip-path="url(#c)"/></g><path d="M137.174 152.473l-46.562 30.24a1.201 1.201 0 1 0 1.309 2.015l46.563-30.24a1.202 1.202 0 1 0-1.31-2.015z" stroke="none" clip-path="url(#a)" text-rendering="geometricPrecision"/><path d="M138.375 152.41a1.202 1.202 0 1 0-1.092 2.142l49.469 25.206a1.202 1.202 0 1 0 1.091-2.142zm1.675 12.094a1.202 1.202 0 1 0-1.09 2.141l37.023 18.865a1.202 1.202 0 1 0 1.091-2.141zM102.833 190.107a1.202 1.202 0 1 0-2.4.126l2.174 41.497a1.201 1.201 0 1 0 2.4-.126zm-10.367-6.45a1.202 1.202 0 1 0-2.4.126l2.906 55.445a1.202 1.202 0 1 0 2.4-.126z" stroke="none" clip-path="url(#a)" text-rendering="geometricPrecision"/><path d="M93.627 240.236l49.468 25.206a1.201 1.201 0 1 0 1.091-2.141l-49.468-25.206a1.201 1.201 0 1 0-1.091 2.14z" stroke="none" clip-path="url(#a)" text-rendering="geometricPrecision"/><path d="M143.389 251.161a1.202 1.202 0 1 0 1.309 2.016l34.849-22.632a1.202 1.202 0 1 0-1.31-2.016zm-.403 12.203a1.201 1.201 0 1 0 1.31 2.015l46.562-30.239a1.202 1.202 0 1 0-1.31-2.015z" stroke="none" clip-path="url(#a)" text-rendering="geometricPrecision"/><path d="M191.403 234.07l-2.905-55.446a1.201 1.201 0 1 0-2.4.126l2.905 55.445a1.202 1.202 0 1 0 2.4-.125z" stroke="none" clip-path="url(#a)" text-rendering="geometricPrecision"/><path d="M187.905 179.724l47.891-28.089a1.202 1.202 0 1 0-1.216-2.073l-47.89 28.089a1.202 1.202 0 1 0 1.215 2.073z" stroke="none" clip-path="url(#a)" text-rendering="geometricPrecision"/><path d="M234.649 151.673l49.62 24.905a1.202 1.202 0 1 0 1.079-2.148l-49.62-24.905a1.202 1.202 0 1 0-1.079 2.148z" stroke="none" clip-path="url(#a)" text-rendering="geometricPrecision"/><g fill="red" text-rendering="geometricPrecision" stroke="none"><path d="M236.39 150.599v-41.32a1.202 1.202 0 1 0-2.404 0v41.32a1.202 1.202 0 1 0 2.404 0z" clip-path="url(#a)"/><path fill="#000" d="M236.39 150.599v-41.32a1.202 1.202 0 1 0-2.404 0v41.32a1.202 1.202 0 1 0 2.404 0z" clip-path="url(#d)"/></g><g fill="#339" text-rendering="geometricPrecision" stroke="none"><path d="M285.41 176.544l37.74-21.79a1.202 1.202 0 1 0-1.2-2.08l-37.742 21.789a1.202 1.202 0 1 0 1.202 2.081z" clip-path="url(#a)"/><path fill="#000" d="M285.41 176.544l37.74-21.79a1.202 1.202 0 1 0-1.2-2.08l-37.742 21.789a1.202 1.202 0 1 0 1.202 2.081z" clip-path="url(#e)"/></g><path d="M32.662 257.783a4.634 4.634 0 0 0-4.634 4.633v9.268a4.634 4.634 0 0 0 4.634 4.634H49.44a4.634 4.634 0 0 0 4.634-4.634v-9.268a4.634 4.634 0 0 0-4.634-4.633z" stroke="none" clip-path="url(#a)" fill="#fff" text-rendering="geometricPrecision"/><text y="20" clip-path="url(#f)" stroke="none" transform="translate(27.028 254.425)" fill="red" text-rendering="geometricPrecision" font-size="19" font-family="sans-serif">HO</text><g fill="#fff" text-rendering="geometricPrecision" font-size="19" font-family="sans-serif" stroke="none"><path d="M31.275 144.34a4.634 4.634 0 0 0-4.634 4.633v9.267a4.634 4.634 0 0 0 4.634 4.634h16.779a4.634 4.634 0 0 0 4.634-4.634v-9.267a4.634 4.634 0 0 0-4.634-4.634z" clip-path="url(#a)"/><text y="20" transform="translate(25.64 140.982)" clip-path="url(#g)" fill="red">HO</text></g><g fill="#fff" text-rendering="geometricPrecision" font-size="19" font-family="sans-serif" stroke="none"><path d="M331.73 138.798a4.473 4.473 0 0 0-4.472 4.473v8.945a4.473 4.473 0 0 0 4.473 4.473h15.351a4.473 4.473 0 0 0 4.473-4.473v7.357a4.492 4.492 0 0 0 4.492 4.492h.47a4.492 4.492 0 0 0 4.492-4.492v-8.985a4.492 4.492 0 0 0-4.492-4.492h-.47a4.492 4.492 0 0 0-4.492 4.492v-7.317a4.473 4.473 0 0 0-4.473-4.473z" clip-path="url(#a)"/><text y="20" transform="translate(326.258 135.244)" clip-path="url(#h)" fill="#339">NH</text></g><text y="15" clip-path="url(#i)" stroke="none" transform="translate(352.055 145.58)" fill="#339" text-rendering="geometricPrecision" font-size="14" font-family="sans-serif">2</text><g fill="#fff" text-rendering="geometricPrecision" font-size="14" font-family="sans-serif" stroke="none"><path d="M232.978 85.936a4.634 4.634 0 0 0-4.634 4.634v9.268a4.634 4.634 0 0 0 4.634 4.633h18.592a4.634 4.634 0 0 0 4.634-4.633V90.57a4.634 4.634 0 0 0-4.634-4.634z" clip-path="url(#a)"/><text font-size="19" y="20" transform="translate(228.344 82.579)" clip-path="url(#j)" fill="red">OH</text></g><text x="21.313" y="32.156" clip-path="url(#k)" stroke="none" transform="translate(-20.947 -20.793) scale(1.9829)" text-rendering="geometricPrecision" font-size="10" font-family="sans-serif">Hydroxyl Group added</text><path d="M201.627 86.504l-73.174-32.579-.916 2.059 73.174 32.578-2.2 4.94 19.125 1.363-13.81-13.301z" stroke="none" clip-path="url(#a)" text-rendering="geometricPrecision" font-size="20" font-weight="bold" font-family="sans-serif"/></svg>
